flaticon/essential/file-1.svg

<svg xmlns="http://www.w3.org/2000/svg" width="32" height="32" viewBox="0 0 24 24">
    <path d="M18 10L8 10C7.777344 10 7.601562 10.179688 7.601562 10.398438 7.601562 10.621094 7.777344 10.800781 8 10.800781L18 10.800781C18.222656 10.800781 18.398438 10.621094 18.398438 10.398438 18.398438 10.179688 18.222656 10 18 10zM8 7.601562L12 7.601562C12.222656 7.601562 12.398438 7.421875 12.398438 7.199219 12.398438 6.980469 12.222656 6.800781 12 6.800781L8 6.800781C7.777344 6.800781 7.601562 6.980469 7.601562 7.199219 7.601562 7.421875 7.777344 7.601562 8 7.601562zM18 13.199219L8 13.199219C7.777344 13.199219 7.601562 13.378906 7.601562 13.601562 7.601562 13.820312 7.777344 14 8 14L18 14C18.222656 14 18.398438 13.820312 18.398438 13.601562 18.398438 13.378906 18.222656 13.199219 18 13.199219zM18 16.398438L8 16.398438C7.777344 16.398438 7.601562 16.578125 7.601562 16.800781 7.601562 17.019531 7.777344 17.199219 8 17.199219L18 17.199219C18.222656 17.199219 18.398438 17.019531 18.398438 16.800781 18.398438 16.578125 18.222656 16.398438 18 16.398438zM18 19.601562L8 19.601562C7.777344 19.601562 7.601562 19.777344 7.601562 20 7.601562 20.222656 7.777344 20.398438 8 20.398438L18 20.398438C18.222656 20.398438 18.398438 20.222656 18.398438 20 18.398438 19.777344 18.222656 19.601562 18 19.601562zM18 19.601562"/>
    <path d="M 19.601562 5.835938 L 19.601562 0 L 2.398438 0 L 2.398438 22 L 4.398438 22 L 4.398438 24 L 21.601562 24 L 21.601562 7.835938 Z M 16 3.367188 L 19.601562 6.964844 L 20.234375 7.601562 L 16 7.601562 Z M 3.199219 21.199219 L 3.199219 0.800781 L 18.800781 0.800781 L 18.800781 5.035156 L 15.765625 2 L 4.398438 2 L 4.398438 21.199219 Z M 5.199219 23.199219 L 5.199219 2.800781 L 15.199219 2.800781 L 15.199219 8.398438 L 20.800781 8.398438 L 20.800781 23.199219 Z M 5.199219 23.199219"/>
</svg>

<svg xmlns="http://www.w3.org/2000/svg" width="32" height="32" viewBox="0 0 24 24">
    <path d="M18 10H8a.398.398 0 0 0-.398.398c0 .223.175.403.398.403h10c.223 0 .398-.18.398-.403A.398.398 0 0 0 18 10zm0 0M8 7.602h4c.223 0 .398-.18.398-.403A.398.398 0 0 0 12 6.801H8a.398.398 0 0 0-.398.398c0 .223.175.403.398.403zm0 0M18 13.2H8a.398.398 0 0 0-.398.402c0 .218.175.398.398.398h10c.223 0 .398-.18.398-.398a.398.398 0 0 0-.398-.403zm0 0M18 16.398H8a.398.398 0 0 0-.398.403c0 .219.175.398.398.398h10c.223 0 .398-.18.398-.398a.398.398 0 0 0-.398-.403zm0 0M18 19.602H8a.395.395 0 0 0-.398.398c0 .223.175.398.398.398h10a.395.395 0 0 0 .398-.398.395.395 0 0 0-.398-.398zm0 0"/>
    <path d="M19.602 5.836V0H2.398v22h2v2h17.204V7.836zM16 3.367l3.602 3.598.632.637H16zM3.2 21.2V.801h15.6v4.234L15.767 2H4.398v19.2zm2 2V2.801h10v5.597h5.6V23.2zm0 0"/>
</svg>
